X:1
T:Little Joe, the Wrangler
M:4/4
L:1/4
K:F
 z2 A c| c c d3/2 c/2| c c2 F| G F F D| F3 C| F2 F3/2 F/2| A B d c|\
 G3 A/2B/2| c c d c| c A2 F| G F F D| F2 F3/2 G/2| A cA/2-G/2 F| G B A G|\
 F3 F/2F/2| F B B3/2 B/2| B d d3/2 d/2| d c c A| c2 c3/2 c/2| c c c- c|\
 d c c A| G4-| G3 c/2c/2| c c d3/2 c/2| c A A F| G F F D| F2 F3/2 G/2|\
 A A A3/2 F/2| G G A3/2 G/2| F4-| F2 z2|
